X:1
T:Trio
T:Trio
T:Trio
T:Juozas Naujalis (1869-1934)
T:Arrangement by Felix Scharpf
T:originally for Organ in E Major arr. for Flute, Violin and Cello 
T:twoflutes 2019 / Felix Scharpf / https://imslp.org/images/4/44/250px-NaujalisJuozas.jpg
T:twoflutes 2019 / Felix Scharpf / https://imslp.org/images/4/44/250px-NaujalisJuozas.jpg
T:twoflutes 2019 / Felix Scharpf / https://imslp.org/images/4/44/250px-NaujalisJuozas.jpg
C:Juozas Naujalis (1869-1934)
Z:twoflutes 2019 / Felix Scharpf / https://imslp.org/images/4/44/250px-NaujalisJuozas.jpg
%%score [ 1 2 3 ]
L:1/8
Q:1/4=68
M:2/4
K:A
V:1 treble nm="Flute" snm="Fl."
V:2 treble nm="Violin" snm="Vl."
V:3 bass nm="Cello" snm="Vc."
V:1
"^Andante"!mf! A(c/d/) (ec) | (f2 e2) | d(e/f/) (ed) | c2 (BA) | (da) g2 | z (a/b/) (c'g) | %6
 a(b/a/) (gf) | e2 z2 | z4 | z4 | z!mp!!<(! (B/c/) (dB) | (e>d) (c/B/c/d/) | B2 F2 | %13
 (E>D)!mf! C!<)!!>(!(D/E/) | (A3 ^A) | B2- B(=A/G/) | F4!>)! |!mp! F(B/c/) (dA) | (^Ac) B2 | %19
 (E/F/)(D/E/) C z | z/ (e/=g/a/) (be) | (=c'2 b2) | (a/g/a/b/) (=g>a) | f(e/d/) c(e/a/) | %24
 (d/c/B/)f/ (e/d/c/B/) | A2 z2 | z4 | z4 | z!p!!<(! (e/f/) (ge) | a4 | g(a/b/) (c'g) | %31
 a(b/a/) (g^e)!<)! |!mp! f!>(!(=e/d/) c(d/A/) | cB/A/- A/F/G!>)! |!p!!>(! A4- | A4- | %36
 A4-[Q:1/4=55][Q:1/4=50][Q:1/4=40] |!pp! A4!>)! |] %38
V:2
 z4 |!mf! D(F/G/) (AF) | (BA) G(F/G/) | A2 GA- | A(c/d/) (ec) | (f2 ^e2) | (f/e/^d/c/) (BA) | %7
 G2 z2 | z!mp!!<(! (^E/F/) (GC) | (c>B) (A/G/F/)B/ | (G2 F2) | E G2 F | D!<)!!>(!(d/e/) (fB) | %13
 (=g>f) (e/d/e/)a/ | (=g2 f2- | f)(e/d/) c2!>)! |!mp! d(f/g/) (af) | b2 a(g/f/) | %18
 (e/^d/e/f/) (=d/c/d/e/) | (cB) (A/B/c/d/) | B2- B/(=G/A/B/) | A(e/f/) (=fd) | (^df) (e/d/)e | %23
 (e/d/c/B/) A2- | A2 (G/F/E/D/) | C!mf!(C/D/) (EC) | (F2 E2) | D(E/F/) (ED) | (C=C) (B,B) | %29
 A(B/c/) (dB) | (e2 ^e2) | (f/e/d/c/ B/A/)(c/B/) |!mp! (A!>(!G) (A/G/F/=F/) | %33
 z/ (E/D/C/) (B,>E)!>)! | C!p!!>(!(E/F/) (=GE) | F4 | F(E/D/) (CB,) |!pp! C4!>)! |] %38
V:3
 z4 | z4 | z4 |!mf! A,,(C,/D,/) (E,C,) | (F,2 E,2 | D,2 C,2) | F,2 z/!mp! (B,,/C,/D,/) | %7
!<(! E,(G,/A,/) (B,G,) | (C2 B,2) | (A,G,) (F,D,) | E,2 (C,A,,) | (G,,B,,) (E,^A,,) | %12
 B,,2-!<)!!>(! B,,(C,/D,/) | (E,G,) A,(B,/C/) | D(D,/E,/) (F,D,) | (=G,2 A,2) | D,4- | D,4!>)! | %18
!mp! (C,^A,,) (B,,G,,) | (A,,E,) A, z | G,2 E,2 | (A,D,) =G,2 | (F,D,) (E,C,) | %23
 =D, z z/ (E/C/A,/) | (B,D,) E,2 | A,2 z2 |!mf! D,(F,/G,/) (A,F,) | (B,A,) G,(F,/G,/) | %28
 A,2 (E,G,) | (F,2 =F,2) | (E,D,) C,2 | (F,B,,) C,2 |!mp! z/!>(! (D,/E,/^E,/) (F,D,) | E,4 | %34
!p! A,,2!>)! z2 | z!>(! (D,/E,/) (F,D,) | A,4 |!pp! A,,4!>)! |] %38

